Catalina-light/actions/16/go-parent-folder.svg

<svg xmlns="http://www.w3.org/2000/svg" width="16" height="16" viewBox="0 0 16 16">
 <defs>
  <style id="current-color-scheme" type="text/css">
   .ColorScheme-Text { color:#5c616c; } .ColorScheme-Highlight { color:#5294e2; }
  </style>
 </defs>
 <path style="fill:currentColor" class="ColorScheme-Text" d="M 1.84375 1.0097656 C 1.56245 1.0565656 1 1.2597656 1 2.0097656 L 1 13.009766 C 1 13.009766 1 14.009766 2 14.009766 L 10.671875 14.009766 L 10.671875 12.328125 C 10.273875 12.644125 9.70285 12.610953 9.34375 12.251953 L 8.6367188 11.544922 C 8.2464188 11.153922 8.2464188 10.520859 8.6367188 10.130859 L 9.5859375 9.1816406 L 11.464844 7.3027344 C 11.648844 7.1185344 11.898203 7.0133656 12.158203 7.0097656 C 12.428203 7.0061656 12.687906 7.1118344 12.878906 7.3027344 L 14.757812 9.1816406 L 15 9.4238281 L 15 4.0097656 C 15 3.0097656 14 3.0097656 14 3.0097656 L 9 3.0097656 L 7 1.0097656 L 2 1.0097656 C 2 1.0097656 1.93745 0.99413563 1.84375 1.0097656 z M 12.171875 8.0097656 L 10.292969 9.8886719 L 9.34375 10.837891 L 10.050781 11.544922 L 11 10.595703 L 11.671875 9.9238281 L 11.671875 14.009766 L 12.671875 14.009766 L 12.671875 9.9238281 L 13.34375 10.595703 L 14.292969 11.544922 L 15 10.837891 L 14.050781 9.8886719 L 12.171875 8.0097656 z"/>
</svg>

<svg width="16" height="16" viewBox="0 0 16 16" xmlns="http://www.w3.org/2000/svg">
<defs>
<style id="current-color-scheme" type="text/css">.ColorScheme-Text { color:#5c616c; } .ColorScheme-Highlight { color:#5294e2; }</style>
</defs>
<path class="ColorScheme-Text" d="m1.8438 1.0098c-0.2813 0.0468-0.84375 0.25-0.84375 1v11s0 1 1 1h8.6719v-1.6816c-0.398 0.316-0.96902 0.28283-1.3281-0.076172l-0.70703-0.70703c-0.3903-0.391-0.3903-1.0241 0-1.4141l2.8281-2.8281c0.184-0.1842 0.43336-0.28937 0.69336-0.29297 0.27-0.0036 0.5297 0.10207 0.7207 0.29297l2.1211 2.1211v-5.4141c0-1-1-1-1-1h-5l-2-2h-5s-0.06255-0.01563-0.15625 0zm10.328 7-2.8281 2.8281 0.70703 0.70703 1.6211-1.6211v4.0859h1v-4.0859l1.6211 1.6211 0.70703-0.70703-2.8281-2.8281z" fill="currentColor"/>
</svg>
